icon-svg/ceiling-flush-circular.svg

<svg xmlns="http://www.w3.org/2000/svg" fill="#44739e" viewBox="0 0 24 24"><path d="M12 4.6C5.4 4.6.2 7.4.2 11.1v.9c0 3.6 5.2 6.5 11.8 6.5s11.8-2.8 11.8-6.5v-.9c0-3.6-5.2-6.5-11.8-6.5m0 12.8c-5.9 0-10.8-2.5-10.8-5.5s5-5.5 10.8-5.5S22.8 9 22.8 12s-4.9 5.4-10.8 5.4m-7.6-5.1c0 2.3 3.4 4.1 7.6 4.1s7.8-1.8 7.6-4.1c0-.2 0-.4-.1-.7-.4-1.9-3.6-3.3-7.6-3.3s-7.2 1.4-7.6 3.3c.1.3.1.7.1.7m7.6-3c3.8 0 6.5 1.4 6.6 2.7-.2 1.4-2.8 2.9-6.6 2.9S5.5 13.4 5.4 12c.1-1.3 2.8-2.7 6.6-2.7"/></svg>

<svg viewBox="0 0 24 24" height="24px" width="24px" fill="#44739e" xmlns="http://www.w3.org/2000/svg"><title>hue:ceiling-flush-circular</title><path d="M12,4.6c-6.6,0-11.8,2.8-11.8,6.5V12c0,3.6,5.2,6.5,11.8,6.5s11.8-2.8,11.8-6.5v-0.9C23.8,7.5,18.6,4.6,12,4.6z M12,17.4 c-5.9,0-10.8-2.5-10.8-5.5s5-5.5,10.8-5.5S22.8,9,22.8,12S17.9,17.4,12,17.4z M4.4,12.3c0,2.3,3.4,4.1,7.6,4.1s7.8-1.8,7.6-4.1c0-0.2,0-0.4-0.1-0.7c-0.4-1.9-3.6-3.3-7.6-3.3s-7.2,1.4-7.6,3.3 C4.4,11.9,4.4,12.3,4.4,12.3z M12,9.3c3.8,0,6.5,1.4,6.6,2.7c-0.2,1.4-2.8,2.9-6.6,2.9c-3.8,0-6.5-1.5-6.6-2.9 C5.5,10.7,8.2,9.3,12,9.3z"/></svg>
